public/img/top/tex-6.svg

<svg fill="none" height="133" viewBox="0 0 120 133" width="120" xmlns="http://www.w3.org/2000/svg" xmlns:xlink="http://www.w3.org/1999/xlink"><filter id="a" color-interpolation-filters="sRGB" filterUnits="userSpaceOnUse" height="128.575" width="113.238" x=".771986" y="3.89784"><feFlood flood-opacity="0" result="BackgroundImageFix"/><feColorMatrix in="SourceAlpha" result="hardAlpha" type="matrix" values="0 0 0 0 0 0 0 0 0 0 0 0 0 0 0 0 0 0 127 0"/><feOffset dx="-4.81071" dy="5.6125"/><feGaussianBlur stdDeviation="4.40982"/><feColorMatrix type="matrix" values="0 0 0 0 0.316369 0 0 0 0 0.366988 0 0 0 0 0.353496 0 0 0 0.25741 0"/><feBlend in2="BackgroundImageFix" mode="normal" result="effect1_dropShadow_555_3050"/><feColorMatrix in="SourceAlpha" result="hardAlpha" type="matrix" values="0 0 0 0 0 0 0 0 0 0 0 0 0 0 0 0 0 0 127 0"/><feOffset dx="-2.40536" dy="2.40536"/><feGaussianBlur stdDeviation="2.00446"/><feColorMatrix type="matrix" values="0 0 0 0 0 0 0 0 0 0 0 0 0 0 0 0 0 0 0.144615 0"/><feBlend in2="effect1_dropShadow_555_3050" mode="normal" result="effect2_dropShadow_555_3050"/><feBlend in="SourceGraphic" in2="effect2_dropShadow_555_3050" mode="normal" result="shape"/></filter><path clip-rule="evenodd" d="m57.7992 12.4614 47.7988 27.6085v55.2168l-47.7988 27.6083-47.7992-27.6083v-55.2168z" fill-rule="evenodd" stroke="#00e599"/><g filter="url(#a)"><path d="m62.2016 7.10498 47.7994 27.73402v55.4681l-47.7994 27.7339-47.7993-27.7339v-55.4681z" fill="#000"/></g><path d="m62.2016 7.10498 47.7994 27.73402v55.4681l-47.7994 27.7339-47.7993-27.7339v-55.4681z" fill="#f0f5f6"/><g stroke="#003"><path clip-rule="evenodd" d="m61.228 65.9872 5.0757 2.8719c.1369.0775.2216.2227.2216.38v5.7283c0 .1573-.0847.3025-.2216.38l-5.0757 2.8719c-.1333.0754-.2964.0754-.4297 0l-5.0757-2.8719c-.137-.0775-.2216-.2227-.2216-.38v-5.7283c0-.1573.0846-.3025.2216-.38l5.0757-2.8719c.1333-.0754.2964-.0754.4297 0z" fill="#fff" fill-rule="evenodd" stroke-width=".561699"/><path d="m61.0127 78.0812v-5.9777" stroke-linecap="round" stroke-width=".561699"/><path d="m55.4268 69.2451 5.4556 2.8589" stroke-linecap="round" stroke-width=".561699"/><path d="m66.3374 69.2451-5.4556 2.8589" stroke-linecap="round" stroke-width=".561699"/><path clip-rule="evenodd" d="m42.0688 65.9872 5.0757 2.8719c.1369.0775.2216.2227.2216.38v5.7283c0 .1573-.0847.3025-.2216.38l-5.0757 2.8719c-.1333.0754-.2964.0754-.4297 0l-5.0757-2.8719c-.1369-.0775-.2216-.2227-.2216-.38v-5.7283c0-.1573.0847-.3025.2216-.38l5.0757-2.8719c.1333-.0754.2964-.0754.4297 0z" fill="#fff" fill-rule="evenodd" stroke-width=".561699"/><path d="m41.8535 78.0812v-5.9777" stroke-linecap="round" stroke-width=".561699"/><path d="m36.2676 69.2441 5.4556 2.8589" stroke-linecap="round" stroke-width=".561699"/><path d="m47.1783 69.2441-5.4556 2.8589" stroke-linecap="round" stroke-width=".561699"/><path clip-rule="evenodd" d="m61.0502 47.29 5.0757 2.8718c.137.0775.2216.2227.2216.3801v5.7282c0 .1574-.0846.3026-.2216.38l-5.0757 2.8719c-.1333.0754-.2964.0754-.4297 0l-5.0757-2.8719c-.1369-.0774-.2216-.2226-.2216-.38v-5.7282c0-.1574.0847-.3026.2216-.3801l5.0757-2.8718c.1333-.0755.2964-.0755.4297 0z" fill="#00e599" fill-rule="evenodd" stroke-width=".561699"/><path d="m60.835 59.3839v-5.9777" stroke-linecap="round" stroke-width=".561699"/><path d="m55.25 50.5479 5.4556 2.8588" stroke-linecap="round" stroke-width=".561699"/><path d="m66.1607 50.5479-5.4556 2.8588" stroke-linecap="round" stroke-width=".561699"/><path clip-rule="evenodd" d="m81.0385 65.9872 5.0757 2.8719c.1369.0775.2216.2227.2216.38v5.7283c0 .1573-.0847.3025-.2216.38l-5.0757 2.8719c-.1333.0754-.2964.0754-.4297 0l-5.0757-2.8719c-.1369-.0775-.2216-.2227-.2216-.38v-5.7283c0-.1573.0847-.3025.2216-.38l5.0757-2.8719c.1333-.0754.2964-.0754.4297 0z" fill="#fff" fill-rule="evenodd" stroke-width=".561699"/><path d="m80.8232 78.0812v-5.9777" stroke-linecap="round" stroke-width=".561699"/><path d="m75.2373 69.2446 5.4556 2.8589" stroke-linecap="round" stroke-width=".561699"/><path d="m86.148 69.2446-5.4556 2.8589" stroke-linecap="round" stroke-width=".561699"/><path d="m75.1063 72.6875h-8.4432" stroke-linecap="square" stroke-width=".561699"/><path d="m54.7463 72.6871-6.9924-.1021" stroke-linecap="square" stroke-width=".561699"/><path d="m60.7275 64.7813v-4.8614" stroke-linecap="square" stroke-width=".52533"/></g></svg>

<svg width="120" height="133" viewBox="0 0 120 133" fill="none" xmlns="http://www.w3.org/2000/svg">
<path fill-rule="evenodd" clip-rule="evenodd" d="M57.7992 12.4614L105.598 40.0699V95.2867L57.7992 122.895L10 95.2867V40.0699L57.7992 12.4614Z" stroke="#00E599"/>
<g filter="url(#filter0_dd_555_3050)">
<path d="M62.2016 7.10498L110.001 34.839V90.3071L62.2016 118.041L14.4023 90.3071V34.839L62.2016 7.10498Z" fill="black"/>
</g>
<path d="M62.2016 7.10498L110.001 34.839V90.3071L62.2016 118.041L14.4023 90.3071V34.839L62.2016 7.10498Z" fill="#F0F5F6"/>
<path fill-rule="evenodd" clip-rule="evenodd" d="M61.228 65.9872L66.3037 68.8591C66.4406 68.9366 66.5253 69.0818 66.5253 69.2391V74.9674C66.5253 75.1247 66.4406 75.2699 66.3037 75.3474L61.228 78.2193C61.0947 78.2947 60.9316 78.2947 60.7983 78.2193L55.7226 75.3474C55.5856 75.2699 55.501 75.1247 55.501 74.9674V69.2391C55.501 69.0818 55.5856 68.9366 55.7226 68.8591L60.7983 65.9872C60.9316 65.9118 61.0947 65.9118 61.228 65.9872Z" fill="white" stroke="#000033" stroke-width="0.561699"/>
<path d="M61.0127 78.0812V72.1035" stroke="#000033" stroke-width="0.561699" stroke-linecap="round"/>
<path d="M55.4268 69.2451L60.8824 72.104" stroke="#000033" stroke-width="0.561699" stroke-linecap="round"/>
<path d="M66.3374 69.2451L60.8818 72.104" stroke="#000033" stroke-width="0.561699" stroke-linecap="round"/>
<path fill-rule="evenodd" clip-rule="evenodd" d="M42.0688 65.9872L47.1445 68.8591C47.2814 68.9366 47.3661 69.0818 47.3661 69.2391V74.9674C47.3661 75.1247 47.2814 75.2699 47.1445 75.3474L42.0688 78.2193C41.9355 78.2947 41.7724 78.2947 41.6391 78.2193L36.5634 75.3474C36.4265 75.2699 36.3418 75.1247 36.3418 74.9674V69.2391C36.3418 69.0818 36.4265 68.9366 36.5634 68.8591L41.6391 65.9872C41.7724 65.9118 41.9355 65.9118 42.0688 65.9872Z" fill="white" stroke="#000033" stroke-width="0.561699"/>
<path d="M41.8535 78.0812V72.1035" stroke="#000033" stroke-width="0.561699" stroke-linecap="round"/>
<path d="M36.2676 69.2441L41.7232 72.103" stroke="#000033" stroke-width="0.561699" stroke-linecap="round"/>
<path d="M47.1783 69.2441L41.7227 72.103" stroke="#000033" stroke-width="0.561699" stroke-linecap="round"/>
<path fill-rule="evenodd" clip-rule="evenodd" d="M61.0502 47.29L66.1259 50.1618C66.2629 50.2393 66.3475 50.3845 66.3475 50.5419V56.2701C66.3475 56.4275 66.2629 56.5727 66.1259 56.6501L61.0502 59.522C60.9169 59.5974 60.7538 59.5974 60.6205 59.522L55.5448 56.6501C55.4079 56.5727 55.3232 56.4275 55.3232 56.2701V50.5419C55.3232 50.3845 55.4079 50.2393 55.5448 50.1618L60.6205 47.29C60.7538 47.2145 60.9169 47.2145 61.0502 47.29Z" fill="#00E599" stroke="#000033" stroke-width="0.561699"/>
<path d="M60.835 59.3839V53.4062" stroke="#000033" stroke-width="0.561699" stroke-linecap="round"/>
<path d="M55.25 50.5479L60.7056 53.4067" stroke="#000033" stroke-width="0.561699" stroke-linecap="round"/>
<path d="M66.1607 50.5479L60.7051 53.4067" stroke="#000033" stroke-width="0.561699" stroke-linecap="round"/>
<path fill-rule="evenodd" clip-rule="evenodd" d="M81.0385 65.9872L86.1142 68.8591C86.2511 68.9366 86.3358 69.0818 86.3358 69.2391V74.9674C86.3358 75.1247 86.2511 75.2699 86.1142 75.3474L81.0385 78.2193C80.9052 78.2947 80.7421 78.2947 80.6088 78.2193L75.5331 75.3474C75.3962 75.2699 75.3115 75.1247 75.3115 74.9674V69.2391C75.3115 69.0818 75.3962 68.9366 75.5331 68.8591L80.6088 65.9872C80.7421 65.9118 80.9052 65.9118 81.0385 65.9872Z" fill="white" stroke="#000033" stroke-width="0.561699"/>
<path d="M80.8232 78.0812V72.1035" stroke="#000033" stroke-width="0.561699" stroke-linecap="round"/>
<path d="M75.2373 69.2446L80.6929 72.1035" stroke="#000033" stroke-width="0.561699" stroke-linecap="round"/>
<path d="M86.148 69.2446L80.6924 72.1035" stroke="#000033" stroke-width="0.561699" stroke-linecap="round"/>
<path d="M75.1063 72.6875H66.6631" stroke="#000033" stroke-width="0.561699" stroke-linecap="square"/>
<path d="M54.7463 72.6871L47.7539 72.585" stroke="#000033" stroke-width="0.561699" stroke-linecap="square"/>
<path d="M60.7275 64.7813V59.9199" stroke="#000033" stroke-width="0.52533" stroke-linecap="square"/>
<defs>
<filter id="filter0_dd_555_3050" x="0.771986" y="3.89784" width="113.238" height="128.575" filterUnits="userSpaceOnUse" color-interpolation-filters="sRGB">
<feFlood flood-opacity="0" result="BackgroundImageFix"/>
<feColorMatrix in="SourceAlpha" type="matrix" values="0 0 0 0 0 0 0 0 0 0 0 0 0 0 0 0 0 0 127 0" result="hardAlpha"/>
<feOffset dx="-4.81071" dy="5.6125"/>
<feGaussianBlur stdDeviation="4.40982"/>
<feColorMatrix type="matrix" values="0 0 0 0 0.316369 0 0 0 0 0.366988 0 0 0 0 0.353496 0 0 0 0.25741 0"/>
<feBlend mode="normal" in2="BackgroundImageFix" result="effect1_dropShadow_555_3050"/>
<feColorMatrix in="SourceAlpha" type="matrix" values="0 0 0 0 0 0 0 0 0 0 0 0 0 0 0 0 0 0 127 0" result="hardAlpha"/>
<feOffset dx="-2.40536" dy="2.40536"/>
<feGaussianBlur stdDeviation="2.00446"/>
<feColorMatrix type="matrix" values="0 0 0 0 0 0 0 0 0 0 0 0 0 0 0 0 0 0 0.144615 0"/>
<feBlend mode="normal" in2="effect1_dropShadow_555_3050" result="effect2_dropShadow_555_3050"/>
<feBlend mode="normal" in="SourceGraphic" in2="effect2_dropShadow_555_3050" result="shape"/>
</filter>
</defs>
</svg>
